X:20
T:The Congress Reel                                                                                 
M:4/4                                                                                               
K:ADor                                                                                              
eAAG A2Bd|eaaf gedg|eA (3AGA eA (3AGA|BG (3GFG B^cdf|                                               
eAAG A2 Bd|eaaf gedB|cBcd eged|cABG A2 Bd :|                                                        
|: eaag a2 ag|eaag egdg|egdg egdg|eaaf gedg|                                                        
eaag a2 ag|eaaf gedB|cBcd eged|cABG A2 Bd :|
